!!!COM: Palestrina, Giovanni Perluigi da
!!!OPR: Missa Veni creator Spiritus
!!!OMD: Credo
!!!OTL: First Section
**kern	**kern	**kern	**kern	**kern	**kern
*Ibass	*Itenor	*Itenor	*Icalto	*Icant	*Icant
!Bassus	!Tenor 2	!Tenor 1	!Altus	!Cantus 2	!Cantus 1
*clefF4	*clefGv2	*clefGv2	*clefG2	*clefG2	*clefG2
*k[]	*k[]	*k[]	*k[]	*k[]	*k[]
*G:mix	*G:mix	*G:mix	*G:mix	*G:mix	*G:mix
*M4/2	*M4/2	*M4/2	*M4/2	*M4/2	*M4/2
=1	=1	=1	=1	=1	=1
0r	0g	1r	0b	0dd	0r
.	.	[1g	.	.	.
=2	=2	=2	=2	=2	=2
0r	1e	1g]	1b	1ee	0r
.	1c	2e	1cc	1ee	.
.	.	[2g	.	.	.
=3	=3	=3	=3	=3	=3
0r	2.d	2g]	2b	1.dd	0r
.	.	2f	2.a	.	.
.	4c	.	.	.	.
.	2B	1d	.	.	.
.	.	.	8g	.	.
.	.	.	8f#	.	.
.	2B	.	2g	2dd	.
=4	=4	=4	=4	=4	=4
0r	1A	1e	1a	1cc#	0r
.	2G	1g	1b	1dd	.
.	[2g	.	.	.	.
=5	=5	=5	=5	=5	=5
0c	4g]	0e	0cc	0ee	0g
.	4f	.	.	.	.
.	4e	.	.	.	.
.	4d	.	.	.	.
.	2c	.	.	.	.
.	2e	.	.	.	.
=6	=6	=6	=6	=6	=6
1A	2e	1c	1cc	1ee	1a
.	1c	.	.	.	.
1F	.	1A	1cc	1ff	1a
.	2A	.	.	.	.
=7	=7	=7	=7	=7	=7
1G	1d	1B	1.b	1dd	1g
2E	1G	2B	.	2ee	2g
2E	.	2c	2e	2ee	2g
=8	=8	=8	=8	=8	=8
0D	1A	2.d	2r	1.a	0f#
.	.	.	2a	.	.
.	.	8c	.	.	.
.	.	8B	.	.	.
.	1r	2A	1d	.	.
.	.	2d	.	2b	.
=9	=9	=9	=9	=9	=9
1C	1r	1G	1e	0cc	1g
2.C	2.c	1r	2.e	.	2.g
4C	4c	.	4e	.	4g
=10	=10	=10	=10	=10	=10
2F	2c	0r	2f	0r	2a
2D	2d	.	2f	.	2a
1A	1c	.	1e	.	1a
=11	=11	=11	=11	=11	=11
2E	2B	0r	2e	0r	2g
2E	2e	.	2c	.	2g
1G	1d	.	1B	.	1g
=12	=12	=12	=12	=12	=12
2.F	2.f	2.c	0r	2.a	2.cc
4F	4f	4c	.	4a	4cc
2E	2g	2c	.	2g	2cc
2C	2g	2e	.	2cc	2cc
=13	=13	=13	=13	=13	=13
1.G	1.g	4d	0r	4b	1.dd
.	.	4c	.	4a	.
.	.	4B	.	4b	.
.	.	4A	.	4cc	.
.	.	2B	.	2dd	.
2G	2g	2B	.	2b	2dd
=14	=14	=14	=14	=14	=14
1C	1e	0c	2r	0ee	0cc
.	.	.	2.g	.	.
[1c	2.g	.	.	.	.
.	.	.	4f	.	.
.	.	.	4e	.	.
.	4f	.	4d	.	.
=15	=15	=15	=15	=15	=15
2c]	2e	2.g	2c	0r	0r
2B	2d	.	2g	.	.
.	.	4g	.	.	.
2A	2c	2f	2a	.	.
2G	2B	2e	2b	.	.
=16	=16	=16	=16	=16	=16
2A	2A	2e	2cc	1r	0r
2F	2A	2d	2a	.	.
1E	1B	1e	4g	2r	.
.	.	.	4a	.	.
.	.	.	4b	[2gg	.
.	.	.	4g	.	.
=17	=17	=17	=17	=17	=17
0r	2c	1r	1a	2gg]	0r
.	2d	.	.	2ff	.
.	2e	2r	[1g	2ee	.
.	2B	[2g	.	2dd	.
=18	=18	=18	=18	=18	=18
0r	2c	2g]	0g]	2ee	0r
.	2c	2e	.	2cc	.
.	1G	1d	.	1b	.
=19	=19	=19	=19	=19	=19
0C	1.g	2.c	[0e	0ee	0cc
.	.	4d	.	.	.
.	.	4e	.	.	.
.	.	4f	.	.	.
.	[2e	[2g	.	.	.
=20	=20	=20	=20	=20	=20
1E	2e]	2g]	1e]	0b	0g
.	4d	2.G	.	.	.
.	4c	.	.	.	.
1G	2B	.	2d	.	.
.	.	4A	.	.	.
.	[2d	2B	[2g	.	.
=21	=21	=21	=21	=21	=21
0D	2d]	1A	2g]	0dd	0a
.	4c	.	4f#	.	.
.	4B	.	4e	.	.
.	2A	1d	1f#	.	.
.	2d	.	.	.	.
=22	=22	=22	=22	=22	=22
0C	2G	1r	2g	2ee	2cc
.	2.c	.	2.g	2.ee	2.cc
.	.	2r	.	.	.
.	4c	.	4g	4ee	4cc
.	2c	[2g	2g	2ee	2cc
=23	=23	=23	=23	=23	=23
0r	2.G	4g]	0b-	1gg	0dd
.	.	4g	.	.	.
.	.	2g	.	.	.
.	4A	.	.	.	.
.	1B-	2.d	.	[1ff	.
.	.	4e	.	.	.
=24	=24	=24	=24	=24	=24
0r	2F	1f	2a	1ff]	0cc
.	1f	.	1a	.	.
.	.	1c	.	1r	.
.	2e	.	2g	.	.
=25	=25	=25	=25	=25	=25
0r	2f	2r	2a	0r	1dd
.	2g	1g	2b	.	.
.	1d	.	1a	.	1dd
.	.	2f#	.	.	.
=26	=26	=26	=26	=26	=26
0r	2.c	4g	1.cc	0r	1.ee
.	.	4f	.	.	.
.	.	4e	.	.	.
.	4d	4d	.	.	.
.	4e	2c	.	.	.
.	4f	.	.	.	.
.	[2g	2c	2cc	.	2ee
=27	=27	=27	=27	=27	=27
1r	4g]	1d	2a	1r	0dd
.	8f#	.	.	.	.
.	8e	.	.	.	.
.	2f#	.	2a	.	.
[1G	1g	1r	[1b	2r	.
.	.	.	.	[2dd	.
=28	=28	=28	=28	=28	=28
2G]	0r	1.g	1b]	2dd]	0r
2G	.	.	.	2dd	.
2c	.	.	2r	2ee	.
2B	.	2g	2g	2dd	.
=29	=29	=29	=29	=29	=29
1c	0r	2.e	2g	1ee	0r
.	.	.	1cc	.	.
.	.	4f	.	.	.
1G	.	1g	.	1dd	.
.	.	.	2b	.	.
=30	=30	=30	=30	=30	=30
2r	0r	1c	1cc	2r	0r
1c	.	.	.	1ee	.
.	.	2r	1g	.	.
2B	.	[2g	.	2dd	.
=31	=31	=31	=31	=31	=31
2A	0r	2g]	2r	2.cc	0r
2A	.	2f#	1cc	.	.
.	.	.	.	4dd	.
1G	.	2.g	.	2ee	.
.	.	.	2b	2dd	.
.	.	4g	.	.	.
=32	=32	=32	=32	=32	=32
2.A	0r	2e	2a	2cc	0r
.	.	1f	2a	1cc	.
4B	.	.	.	.	.
2c	.	.	1g	.	.
2c	.	2e	.	2cc	.
=33	=33	=33	=33	=33	=33
1F	2r	1f	2.a	1cc	2r
.	2f	.	.	.	2cc
.	.	.	4a	.	.
1r	2f	2r	2a	1r	2cc
.	2e	2g	2g	.	2cc
=34	=34	=34	=34	=34	=34
0r	1d	2g	2a	0r	1dd
.	.	2f#	2a	.	.
.	1G	1g	1b	.	1dd
=35	=35	=35	=35	=35	=35
2r	1g	1c	1cc	2r	1ee
2c	.	.	.	2cc	.
2A	2a	1r	1r	2cc	2ee
2c	2e	.	.	2g	2ee
=36	=36	=36	=36	=36	=36
2F	2f	0r	0r	2a	2cc
2F	2f	.	.	2a	2cc
1C	2.e	.	.	[1g	1cc
.	8d	.	.	.	.
.	8c	.	.	.	.
=37	=37	=37	=37	=37	=37
1.G	1d	2r	2r	1g]	1.b
.	.	1d	1g	.	.
.	1r	.	.	1r	.
2G	.	2d	2g	.	2b
=38	=38	=38	=38	=38	=38
4A	0r	2.c	1.e	0r	1a
4G	.	.	.	.	.
4A	.	.	.	.	.
4B	.	4d	.	.	.
2c	.	2e	.	.	1a
2d	.	2f#	2d	.	.
=39	=39	=39	=39	=39	=39
1G	2r	2.g	2r	1b	1dd
.	2G	.	2g	.	.
.	.	8f	.	.	.
.	.	8e	.	.	.
1r	2G	1d	2g	2b	2dd
.	2G	.	2g	2b	2dd
=40	=40	=40	=40	=40	=40
0r	4A	0r	1.e	4a	0cc
.	4G	.	.	4b	.
.	4A	.	.	4cc	.
.	4B	.	.	4dd	.
.	2c	.	.	[1ee	.
.	2A	.	[2a	.	.
=41	=41	=41	=41	=41	=41
0r	0e	0r	2a]	1ee]	0b
.	.	.	4g#	.	.
.	.	.	4f#	.	.
.	.	.	1g#	1ee	.
=42	=42	=42	=42	=42	=42
2r	2r	0r	1a	2r	0cc
1F	1c	.	.	1a	.
.	.	.	1r	.	.
2E	2e	.	.	2g	.
=43	=43	=43	=43	=43	=43
2F	2d	1r	1r	2a	0r
2G	2d	.	.	2b	.
4A	1c	2r	2r	1cc	.
4G	.	.	.	.	.
4F	.	[2a	[2f	.	.
4G	.	.	.	.	.
=44	=44	=44	=44	=44	=44
4A	0c	2a]	2f]	1cc	0r
4B	.	.	.	.	.
2c	.	2g	2e	.	.
2F	.	2a	2f	2r	.
2C	.	2e	2g	[2ee	.
=45	=45	=45	=45	=45	=45
0r	2r	1f	2.a	2ee]	0r
.	1a	.	.	2dd	.
.	.	.	4a	.	.
.	.	1e	2cc	[1ee	.
.	2g#	.	2b	.	.
=46	=46	=46	=46	=46	=46
0r	2.a	0r	2.cc	2ee]	0r
.	.	.	.	2ee	.
.	4g	.	4b	.	.
.	2f	.	2a	2dd	.
.	2e	.	2g#	2ee	.
=47	=47	=47	=47	=47	=47
0r	1d	2r	2.a	1ff	0r
.	.	1a	.	.	.
.	.	.	4b	.	.
.	1e	.	2cc	1ee	.
.	.	2g#	2b	.	.
=48	=48	=48	=48	=48	=48
0r	2r	2.a	2r	2r	0r
.	1f	.	1a	1cc	.
.	.	4g	.	.	.
.	.	2f	.	.	.
.	2g	2e	2g	2cc	.
=49	=49	=49	=49	=49	=49
0r	2a	1d	2f	2dd	0r
.	2f	.	2d	2ff	.
.	2g	1c	1e	4ee	.
.	.	.	.	4dd	.
.	4a	.	.	4cc	.
.	4g	.	.	4b	.
=50	=50	=50	=50	=50	=50
0r	4f	2d	2f	2a	0r
.	4e	.	.	.	.
.	2d	2B	2g	1dd	.
.	1e	1A	1a	.	.
.	.	.	.	2cc#	.
=51	=51	=51	=51	=51	=51
1G	2d	0r	2r	0dd	1b
.	2g	.	2d	.	.
1G	1g	.	1d	.	1b
=52	=52	=52	=52	=52	=52
2F	2a	0r	2f	0r	2cc
2E	2g	.	2g	.	2cc
2F	2f	.	2a	.	2cc
2C	2e	.	2g	.	2cc
=53	=53	=53	=53	=53	=53
1D	1d	2r	2.f	2r	2a
.	.	2d	.	2dd	2a
.	.	.	4e	.	.
1r	1r	2d	2d	2ff	1a
.	.	[2c	2A	[2ee	.
=54	=54	=54	=54	=54	=54
0r	0r	2c]	2c	2ee]	2g
.	.	2B	2d	2dd	2g
.	.	2c	2e	2cc	2g
.	.	2G	[2d	2b	2g
=55	=55	=55	=55	=55	=55
0r	0r	0d	4d]	1a	0f
.	.	.	4e	.	.
.	.	.	4f	.	.
.	.	.	4g	.	.
.	.	.	2a	[1dd	.
.	.	.	2d	.	.
=56	=56	=56	=56	=56	=56
1r	2r	1A	2f	2dd]	1a
.	2a	.	2e	2cc	.
1d	2f	1r	2r	1ff	1a
.	2d	.	2f	.	.
=57	=57	=57	=57	=57	=57
2.c	1.e	1r	1g	2.ee	1cc
4B	.	.	.	4dd	.
4A	.	2r	1a	4cc	1cc
4G	.	.	.	4b	.
2F	4f	2A	.	2a	.
.	4e	.	.	.	.
=58	=58	=58	=58	=58	=58
1G	4d	2B	2r	4g	0b
.	4c	.	.	4a	.
.	4B	2.G	2d	4b	.
.	4A	.	.	4cc	.
1G	2B	.	1g	2dd	.
.	.	4A	.	.	.
.	2G	2B	.	2ee	.
=59	=59	=59	=59	=59	=59
0F	1.A	1c	2c	0ff	0a
.	.	.	2A	.	.
.	.	1F	2c	.	.
.	2B	.	2d	.	.
=60	=60	=60	=60	=60	=60
0C	0c	1G	0e	1ee	0g
.	.	2r	.	1r	.
.	.	[2g	.	.	.
=61	=61	=61	=61	=61	=61
0r	0d	2g]	0a	0dd	0r
.	.	4f#	.	.	.
.	.	4e	.	.	.
.	.	1f#	.	.	.
=62	=62	=62	=62	=62	=62
0r	2.c	1g	1cc	1.ee	0r
.	4d	.	.	.	.
.	2e	1g	1b	.	.
.	2B	.	.	2dd	.
=63	=63	=63	=63	=63	=63
0r	1c	1e	1.g	1cc	0r
.	1c	1e	.	1cc	.
.	.	.	2g	.	.
=64	=64	=64	=64	=64	=64
0G	1G	1d	1g	0dd	0b
.	1r	1d	1g	.	.
=65	=65	=65	=65	=65	=65
2.F	0r	1f	1.a	0r	1.cc
4G	.	.	.	.	.
2A	.	1e	.	.	.
2E	.	.	2g	.	2cc
=66	=66	=66	=66	=66	=66
1F	0r	1c	1f	0r	1a
1F	.	1c	1f	.	1a
=67	=67	=67	=67	=67	=67
0C	2r	1c	2e	2r	2g
.	1c	.	1cc	1ee	1g
.	.	1r	.	.	.
.	2c	.	2cc	2ee	2g
=68	=68	=68	=68	=68	=68
0r	1d	0r	4a	1dd	1f
.	.	.	4g	.	.
.	.	.	4f	.	.
.	.	.	4e	.	.
.	1B-	.	2d	1dd	1f
.	.	.	2d	.	.
=69	=69	=69	=69	=69	=69
0r	1A	0r	1e	1cc#	1a
.	1d	.	1f	1dd	1a
=70	=70	=70	=70	=70	=70
0C	1.c	1e	1g	1ee	1cc
.	.	1c	1g	1ee	1cc
.	2G	.	.	.	.
=71	=71	=71	=71	=71	=71
0G	2.B	0d	0g	0dd	0b
.	4c	.	.	.	.
.	2d	.	.	.	.
.	2G	.	.	.	.
=72	=72	=72	=72	=72	=72
2.D	2A	1d	0f	1dd	1a
.	1A	.	.	.	.
4E	.	.	.	.	.
1F	.	2.A	.	2.cc	1a
.	[2c	.	.	.	.
.	.	4B	.	4dd	.
=73	=73	=73	=73	=73	=73
1C	4c]	1c	1e	1ee	0g
.	4d	.	.	.	.
.	1e	.	.	.	.
1C	.	1G	1e	1cc	.
.	4d	.	.	.	.
.	4c	.	.	.	.
=74	=74	=74	=74	=74	=74
0G	0B	0G	0d	0dd	0g
*-	*-	*-	*-	*-	*-
!!!CDT: 1525/^1526/-1594/2/2
!!!OCY: Italia
!!!AGN: Mass (Tenor)
!!!AST: renaissance, vocal
!!!ASW: Hymn
!!!PWK: Masses, Book 9
!!!RNB: Cadence finals: C,D
!!!YOR: Le Opere Complete, v. 25, p. 246
!!!YOO: Rome, Italy: Fratelli Scalera
!!!END: 1992//
!!!EED: John Miller
!!!YEC: Copyright 2000, John Miller
!!!YEN: United States of America
!!!YEM: Rights to all derivative electronic formats reserved.
!!!YEM: Refer to licensing agreement for further details.
!!!YEM: This file must be accompanied by the licensing agreement.
!!!YEM: A copy of the licensing agreement may be found at http://www.music-cog.ohio-state.edu/HumdrumDatabases/Palestrina/license.txt
!!!EMD: converted to Humdrum by Bret Aarden
